!!!OTL: ES WAR EIN MARKGRAF UEBERN RHEIN
!!!ARE: Europa, Mitteleuropa, Deutschland, Rheinland
!!!SCT: Z0007
!!!YEM: Copyright 1995, estate of Helmut Schaffrath.
**kern
*ICvox
*Ivox
*M3/4
*k[b-e-]
*g:
{8d
8d
8d
=1
4.g
8b-
8a
8g
=2
4f#
8r}
{8a
8b-
8cc
=3
4.dd
8cc
8b-
8a
=4
4g
8r}
{8d
8d
8d
=5
4.g
8b-
8a
8g
=6
4f#
8r}
{8a
8b-
8cc
=7
4.dd
8cc
8b-
8a
=8
4g
8r}
{8dd
8dd
8dd
=9
4.dd
8a
8b-
8g
=10
4a
8r}
{8d
8g
8b-
=11
4.a
8cc
8b-
8a
=12
4g
8r}
{8dd
8dd
8dd
=13
4.dd
8a
8b-
8g
=14
4a
8r}
{8d
8g
8b-
=15
4.a
8cc
8b-
8a
=16
4g
8r}
==
!!!AMT: simple triple
!!!AIN: vox
!!!EED: Helmut Schaffrath
!!!EEV: 1.0
*-
